img/a.svg

<svg width="177" height="87" viewBox="0 0 177 87" fill="none" xmlns="http://www.w3.org/2000/svg">
<path d="M36.8962 36.2137C36.6634 36.0417 36.3985 35.9176 36.117 35.8487C35.8354 35.7797 35.5429 35.7672 35.2565 35.8119C34.97 35.8567 34.6954 35.9577 34.4487 36.1092C34.202 36.2607 33.9881 36.4596 33.8195 36.6943L29.28 42.9334H34.7389L37.3793 39.3333C37.7289 38.8551 37.8743 38.2589 37.7838 37.6745C37.6933 37.0901 37.3742 36.565 36.8962 36.2137ZM15.475 44.6455V45.2793C15.475 46.6654 15.7495 48.0379 16.2827 49.3185C16.8159 50.5991 17.5975 51.7627 18.5828 52.7428C19.5681 53.7229 20.7378 54.5004 22.0251 55.0308C23.3125 55.5613 24.6922 55.8343 26.0856 55.8343C27.479 55.8343 28.8588 55.5613 30.1461 55.0308C31.4335 54.5004 32.6032 53.7229 33.5885 52.7428C34.5738 51.7627 35.3553 50.5991 35.8886 49.3185C36.4218 48.0379 36.6963 46.6654 36.6963 45.2793C36.7087 45.0682 36.7087 44.8566 36.6963 44.6455H15.475Z" fill="black"/>
<path fill-rule="evenodd" clip-rule="evenodd" d="M42.3551 35.0413C45.4176 40.0094 46.3899 45.9774 45.0615 51.6533C43.7331 57.3293 40.2109 62.2564 35.2574 65.3681C32.3514 67.1429 29.0601 68.1991 25.6593 68.4481C22.2586 68.6972 18.8473 68.1318 15.7114 66.7994C19.7399 68.8786 24.2431 69.879 28.7781 69.7021C33.3131 69.5252 37.7238 68.1772 41.5763 65.7906C47.5293 62.205 51.8256 56.434 53.5373 49.724C55.2491 43.014 54.239 35.9034 50.7251 29.928C48.9401 27.0187 46.5916 24.4913 43.8161 22.4927C41.0406 20.4942 37.8935 19.0644 34.5576 18.2864C31.2217 17.5084 27.7636 17.3978 24.3844 17.9609C21.0051 18.524 17.7721 19.7497 14.8732 21.5667C10.9778 23.9383 7.75745 27.2622 5.51854 31.222C3.27963 35.1818 2.09671 39.6456 2.08237 44.1887C2.34838 40.7871 3.41543 37.4956 5.19724 34.5802C6.97905 31.6648 9.42559 29.2076 12.339 27.4071C14.8085 25.9284 17.5487 24.9525 20.4005 24.5361C23.2523 24.1196 26.1588 24.2708 28.9514 24.981C31.7439 25.6911 34.3668 26.9461 36.6678 28.6729C38.9687 30.3997 40.9019 32.5641 42.3551 35.0403" fill="black"/>
<path fill-rule="evenodd" clip-rule="evenodd" d="M13.7769 52.4683C11.6567 49.006 10.9877 44.8542 11.9138 40.9062C12.8399 36.9582 15.2871 33.5296 18.7287 31.3584C20.7597 30.1218 23.0584 29.3863 25.4332 29.2129C27.8079 29.0396 30.19 29.4336 32.3806 30.362C29.5675 28.9163 26.4251 28.2221 23.2613 28.3474C20.0974 28.4727 17.0205 29.4131 14.3318 31.0766C10.1755 33.5742 7.17476 37.5992 5.97896 42.2807C4.78315 46.9623 5.4884 51.924 7.94211 56.0922C9.18929 58.1236 10.8293 59.8884 12.7672 61.2846C14.705 62.6809 16.9022 63.6806 19.2313 64.226C21.5604 64.7713 23.9752 64.8514 26.3356 64.4617C28.6961 64.0719 30.9553 63.2201 32.9824 61.9554C35.7106 60.301 37.9661 57.9774 39.5328 55.2073C41.0995 52.4372 41.9251 49.3133 41.9303 46.1349C41.7405 48.5111 40.9932 50.81 39.7484 52.8468C38.5036 54.8837 36.7961 56.6019 34.7628 57.8633C33.0313 58.8891 31.1125 59.5633 29.1175 59.8472C27.1225 60.1311 25.0907 60.0189 23.1395 59.5172C21.1883 59.0154 19.3564 58.1341 17.7495 56.924C16.1427 55.714 14.7928 54.1992 13.7779 52.4672" fill="black"/>
<path d="M67.4182 60.6069H63.7408V30.3744H76.3911C82.6038 30.3744 86.0574 34.1858 86.0574 39.5322C86.0574 44.8806 82.5205 48.6807 76.3901 48.6807H67.4182V60.6069ZM67.4182 33.8917V45.1385H76.3901C79.9269 45.1385 82.4268 43.4731 82.4268 39.497C82.4268 35.5219 79.928 33.8689 76.3901 33.8689H67.4182V33.8917ZM103.045 61.1227C94.7939 61.1227 88.121 54.0861 88.121 45.3384C88.121 36.5887 94.7939 29.6111 103.046 29.6111C106.137 29.5383 109.164 30.4863 111.656 32.3068C114.147 34.1273 115.962 36.7177 116.816 39.6731H112.902C112.123 37.7136 110.763 36.0367 109.002 34.8654C107.242 33.6942 105.164 33.0843 103.046 33.117C96.8336 33.117 91.7755 38.6767 91.7755 45.3384C91.7755 51.9981 96.7742 57.5464 103.046 57.5464C105.166 57.553 107.24 56.9334 109.005 55.7663C110.77 54.5991 112.147 52.9369 112.961 50.9903H116.816C115.931 53.9331 114.11 56.5112 111.628 58.338C109.145 60.1648 106.134 61.1419 103.046 61.1227H103.045ZM133.628 61.1227C125.375 61.1227 118.714 54.0861 118.714 45.3384C118.714 36.5887 125.375 29.6111 133.628 29.6111C136.719 29.5358 139.747 30.4828 142.239 32.3037C144.731 34.1246 146.545 36.7164 147.397 39.6731H143.554C142.771 37.7025 141.4 36.0178 139.625 34.8457C137.85 33.6736 135.757 33.0703 133.628 33.117C127.426 33.117 122.357 38.6767 122.357 45.3384C122.357 51.9981 127.426 57.5464 133.628 57.5464C135.749 57.5551 137.825 56.9366 139.593 55.7693C141.36 54.602 142.739 52.9386 143.554 50.9903H147.397C146.513 53.9336 144.693 56.5122 142.21 58.3391C139.727 60.166 136.716 61.1427 133.628 61.1227ZM155.073 51.7992L151.854 60.6069H147.846L159.199 30.3744H163.372L174.501 60.6069H170.386L167.228 51.7992H155.073ZM161.226 34.8767L156.345 48.3637H166.06L161.226 34.8767ZM173.782 34.7244C173.55 34.9701 173.269 35.1632 172.955 35.2906C172.642 35.4181 172.305 35.4768 171.967 35.4629C171.636 35.4653 171.307 35.4011 171.001 35.2742C170.695 35.1473 170.418 34.9603 170.187 34.7244C169.948 34.4879 169.759 34.2062 169.632 33.896C169.504 33.5857 169.44 33.2533 169.444 32.9181C169.447 32.5805 169.519 32.2469 169.657 31.9383C169.795 31.6297 169.995 31.3526 170.245 31.1243C170.474 30.885 170.751 30.695 171.057 30.5658C171.363 30.4367 171.693 30.3712 172.025 30.3734C172.363 30.3726 172.697 30.4386 173.009 30.5675C173.321 30.6964 173.604 30.8857 173.841 31.1243C174.082 31.3573 174.271 31.637 174.398 31.9456C174.526 32.2532 174.59 32.5846 174.583 32.9192C174.583 33.5944 174.317 34.2425 173.841 34.7244H173.782ZM170.457 31.3584C170.25 31.5592 170.087 31.8003 169.977 32.0667C169.868 32.3331 169.815 32.619 169.821 32.9067C169.815 33.1978 169.868 33.4872 169.977 33.7573C170.086 34.0274 170.25 34.2725 170.457 34.4779C170.688 34.7055 170.967 34.8791 171.274 34.9864C171.58 35.0936 171.907 35.1318 172.23 35.0981C172.554 35.0644 172.865 34.9597 173.143 34.7915C173.421 34.6234 173.657 34.396 173.836 34.1258C174.074 33.7638 174.199 33.3395 174.195 32.9067C174.201 32.619 174.148 32.3331 174.038 32.0668C173.928 31.8004 173.765 31.5593 173.558 31.3584C173.359 31.1503 173.119 30.9849 172.854 30.872C172.588 30.7591 172.303 30.7011 172.014 30.7017C171.429 30.7102 170.87 30.9458 170.457 31.3584ZM171.954 31.4992C172.209 31.4806 172.463 31.5199 172.698 31.6162C172.838 31.6734 172.956 31.7738 173.034 31.9026C173.113 32.0314 173.148 32.1819 173.134 32.3319C173.141 32.438 173.121 32.5441 173.075 32.6404C173.03 32.7367 172.961 32.8201 172.875 32.8829C172.748 32.946 172.613 32.9933 172.474 33.0238C172.571 33.0283 172.666 33.0563 172.751 33.1053C172.835 33.1544 172.906 33.2231 172.957 33.3055C173.058 33.4271 173.109 33.5822 173.099 33.7395V34.2791H172.639V33.9155C172.639 33.5986 172.556 33.3645 172.379 33.2817C172.207 33.2123 172.022 33.1843 171.837 33.1999H171.46V34.3143H170.977V31.523H171.896L171.954 31.4992ZM172.474 31.957C172.278 31.8829 172.07 31.847 171.861 31.8514H171.424V32.8829H171.848C172.001 32.9026 172.155 32.9026 172.308 32.8829C172.397 32.8504 172.473 32.791 172.526 32.7132C172.579 32.6353 172.606 32.5429 172.603 32.449C172.628 32.4077 172.645 32.362 172.653 32.3143C172.667 32.2171 172.641 32.1186 172.582 32.0398C172.553 32.0016 172.516 31.9696 172.474 31.9456V31.956V31.957Z" fill="black"/>
</svg>

<svg xmlns="http://www.w3.org/2000/svg" width="177" height="87" fill="#000" xmlns:v="https://vecta.io/nano"><path d="M36.896 36.214c-.233-.172-.498-.296-.779-.365s-.574-.081-.86-.037a2.19 2.19 0 0 0-.808.297 2.18 2.18 0 0 0-.629.585l-4.539 6.239h5.459l2.64-3.6a2.23 2.23 0 0 0 .404-1.659 2.24 2.24 0 0 0-.888-1.461zm-21.421 8.432v.634a10.51 10.51 0 0 0 .808 4.039 10.55 10.55 0 0 0 2.3 3.424c.985.98 2.155 1.758 3.442 2.288a10.66 10.66 0 0 0 8.121 0c1.287-.53 2.457-1.308 3.442-2.288a10.55 10.55 0 0 0 2.3-3.424 10.51 10.51 0 0 0 .808-4.039c.012-.211.012-.423 0-.634H15.475z"/><path d="M42.355 35.041a22.06 22.06 0 0 1 2.706 16.612c-1.329 5.676-4.851 10.603-9.804 13.715-2.906 1.775-6.197 2.831-9.598 3.08a21.43 21.43 0 0 1-9.948-1.649 26.26 26.26 0 0 0 13.067 2.903 26.24 26.24 0 0 0 12.798-3.912c5.953-3.586 10.249-9.357 11.961-16.067a26.24 26.24 0 0 0-2.812-19.796 25.76 25.76 0 0 0-6.909-7.435 25.92 25.92 0 0 0-9.258-4.206 25.99 25.99 0 0 0-10.173-.326c-3.379.563-6.612 1.789-9.511 3.606a26.69 26.69 0 0 0-9.355 9.655 26.51 26.51 0 0 0-3.436 12.967c.266-3.402 1.333-6.693 3.115-9.608s4.228-5.373 7.142-7.173c2.47-1.479 5.21-2.455 8.062-2.871a21.87 21.87 0 0 1 8.551.445 21.81 21.81 0 0 1 7.716 3.692c2.301 1.727 4.234 3.891 5.687 6.367M13.777 52.468a15.4 15.4 0 0 1-1.863-11.562 15.47 15.47 0 0 1 6.815-9.548 14.99 14.99 0 0 1 6.704-2.145c2.375-.173 4.757.221 6.947 1.149-2.813-1.446-5.956-2.14-9.119-2.015s-6.241 1.066-8.929 2.729A18.39 18.39 0 0 0 5.979 42.28a18.29 18.29 0 0 0 1.963 13.811 18.02 18.02 0 0 0 4.825 5.192c1.938 1.396 4.135 2.396 6.464 2.941a18.18 18.18 0 0 0 7.104.236 18.14 18.14 0 0 0 6.647-2.506 18.6 18.6 0 0 0 6.55-6.748 18.49 18.49 0 0 0 2.398-9.072 15.19 15.19 0 0 1-2.182 6.712c-1.245 2.037-2.952 3.755-4.986 5.017a15.3 15.3 0 0 1-5.645 1.984c-1.995.284-4.027.172-5.978-.33a15.29 15.29 0 0 1-5.39-2.593 15.2 15.2 0 0 1-3.972-4.457" fill-rule="evenodd"/><path d="M67.418 60.607h-3.677V30.374h12.65c6.213 0 9.666 3.811 9.666 9.158s-3.537 9.148-9.667 9.148h-8.972v11.926zm0-26.715v11.247h8.972c3.537 0 6.037-1.665 6.037-5.642s-2.499-5.628-6.037-5.628h-8.972v.023zm35.627 27.231c-8.251 0-14.924-7.037-14.924-15.784s6.673-15.727 14.925-15.727c3.091-.073 6.118.875 8.61 2.696a13.91 13.91 0 0 1 5.16 7.366h-3.914a10.38 10.38 0 0 0-3.9-4.808 10.46 10.46 0 0 0-5.956-1.748c-6.212 0-11.271 5.56-11.271 12.221s4.999 12.208 11.271 12.208c2.12.007 4.194-.613 5.959-1.78s3.142-2.829 3.956-4.776h3.855c-.885 2.943-2.706 5.521-5.188 7.348s-5.494 2.804-8.582 2.785h-.001zm30.583 0c-8.253 0-14.914-7.037-14.914-15.784s6.661-15.727 14.914-15.727c3.091-.075 6.119.872 8.611 2.693s4.306 4.413 5.158 7.369h-3.843a10.38 10.38 0 0 0-3.929-4.827 10.47 10.47 0 0 0-5.997-1.729c-6.202 0-11.271 5.56-11.271 12.221s5.069 12.208 11.271 12.208c2.121.009 4.197-.61 5.965-1.777a10.66 10.66 0 0 0 3.961-4.779h3.843c-.884 2.943-2.704 5.522-5.187 7.349s-5.494 2.804-8.582 2.784zm21.445-9.324l-3.219 8.808h-4.008l11.353-30.232h4.173l11.129 30.233h-4.115l-3.158-8.808h-12.155zm6.153-16.922l-4.881 13.487h9.715l-4.834-13.487zm12.556-.152c-.232.246-.513.439-.827.566a2.36 2.36 0 0 1-.988.172c-.331.002-.66-.062-.966-.189s-.583-.314-.814-.55c-.239-.236-.428-.518-.555-.828s-.192-.643-.188-.978.075-.671.213-.98.338-.586.588-.814c.229-.239.506-.429.812-.559a2.45 2.45 0 0 1 .968-.192 2.56 2.56 0 0 1 .984.194 2.54 2.54 0 0 1 .832.557c.241.233.43.513.557.821s.192.639.185.974a2.57 2.57 0 0 1-.742 1.805h-.059zm-3.325-3.366c-.207.201-.37.442-.48.708a2.1 2.1 0 0 0-.156.84c-.006.291.047.581.156.851a2.15 2.15 0 0 0 .48.721c.231.228.51.401.817.509s.633.145.956.112a2.2 2.2 0 0 0 .913-.307 2.19 2.19 0 0 0 .693-.666 2.18 2.18 0 0 0 .359-1.219c.006-.288-.047-.574-.157-.84s-.273-.508-.48-.708a2.13 2.13 0 0 0-.704-.486c-.266-.113-.551-.171-.84-.17a2.25 2.25 0 0 0-1.557.657zm1.497.141c.255-.019.509.021.744.117.14.057.258.158.336.286s.114.279.1.429a.62.62 0 0 1-.059.309.63.63 0 0 1-.2.242 1.74 1.74 0 0 1-.401.141.61.61 0 0 1 .277.081c.084.049.155.118.206.2a.62.62 0 0 1 .142.434v.54h-.46v-.364c0-.317-.083-.551-.26-.634a1.18 1.18 0 0 0-.542-.082h-.377v1.114h-.483v-2.791h.919l.058-.024zm.52.458c-.196-.074-.404-.11-.613-.106h-.437v1.031h.424a1.8 1.8 0 0 0 .46 0 .45.45 0 0 0 .218-.17c.053-.078.08-.17.077-.264.025-.041.042-.087.05-.135a.37.37 0 0 0-.071-.275.36.36 0 0 0-.108-.094v.01.001z"/></svg>
